dist/img/catalog-brand/cb_icon_2.svg

<svg width="28" height="28" viewBox="0 0 28 28" fill="none" xmlns="http://www.w3.org/2000/svg">
<path d="M6.80496 14.9928C5.16333 14.9928 3.85217 14.4447 2.87146 13.3485C1.89075 12.2523 1.40039 10.7631 1.40039 8.88093C1.40039 7.01944 1.89075 5.54058 2.87146 4.44437C3.85217 3.34816 5.16333 2.80005 6.80496 2.80005C8.44658 2.80005 9.75775 3.34816 10.7385 4.44437C11.7192 5.54058 12.2095 7.01944 12.2095 8.88093C12.2095 10.7631 11.7192 12.2523 10.7385 13.3485C9.75775 14.4447 8.44658 14.9928 6.80496 14.9928ZM19.5009 2.9862H22.7948L8.53186 25.0139H5.23795L19.5009 2.9862ZM6.80496 12.3247C8.23339 12.3247 8.9476 11.1768 8.9476 8.88093C8.9476 6.60577 8.23339 5.46819 6.80496 5.46819C5.37653 5.46819 4.66232 6.60577 4.66232 8.88093C4.66232 11.1768 5.37653 12.3247 6.80496 12.3247ZM21.1958 25.2C19.5329 25.2 18.2111 24.6519 17.2303 23.5557C16.2496 22.4388 15.7593 20.9496 15.7593 19.0881C15.7593 17.2266 16.2496 15.7478 17.2303 14.6516C18.2324 13.5554 19.5542 13.0073 21.1958 13.0073C22.8374 13.0073 24.1486 13.5554 25.1293 14.6516C26.11 15.7478 26.6004 17.2266 26.6004 19.0881C26.6004 20.9703 26.11 22.4595 25.1293 23.5557C24.1486 24.6519 22.8374 25.2 21.1958 25.2ZM21.1958 22.5319C22.6242 22.5319 23.3385 21.384 23.3385 19.0881C23.3385 16.813 22.6242 15.6754 21.1958 15.6754C19.7461 15.6754 19.0212 16.813 19.0212 19.0881C19.0212 21.384 19.7461 22.5319 21.1958 22.5319Z" fill="#FC00FF"/>
</svg>

<svg width="28" height="28" viewBox="0 0 28 28" fill="none" xmlns="http://www.w3.org/2000/svg"><path d="M6.805 14.993c-1.642 0-2.953-.548-3.934-1.645-.98-1.096-1.47-2.585-1.47-4.467 0-1.862.49-3.34 1.47-4.437C3.852 3.348 5.163 2.8 6.805 2.8c1.642 0 2.953.548 3.934 1.644.98 1.097 1.47 2.575 1.47 4.437 0 1.882-.49 3.371-1.47 4.467-.981 1.097-2.292 1.645-3.934 1.645zM19.501 2.986h3.294L8.532 25.014H5.238L19.5 2.986zM6.805 12.325c1.428 0 2.143-1.148 2.143-3.444 0-2.275-.715-3.413-2.143-3.413S4.662 6.606 4.662 8.881c0 2.296.715 3.444 2.143 3.444zM21.195 25.2c-1.662 0-2.984-.548-3.965-1.644-.98-1.117-1.47-2.606-1.47-4.468 0-1.861.49-3.34 1.47-4.436 1.002-1.097 2.324-1.645 3.966-1.645 1.641 0 2.953.548 3.933 1.645.981 1.096 1.471 2.575 1.471 4.436 0 1.882-.49 3.371-1.47 4.468-.981 1.096-2.293 1.644-3.934 1.644zm0-2.668c1.43 0 2.143-1.148 2.143-3.444 0-2.275-.714-3.413-2.142-3.413-1.45 0-2.175 1.138-2.175 3.413 0 2.296.725 3.444 2.175 3.444z" fill="#FC00FF"/></svg>
